azure-patterns/svg-sql-data-warehouse-dark.svg

<svg xmlns="http://www.w3.org/2000/svg" viewBox="0 0 157 157">
                                
                            
    <path d="M68.0715 89.9304V104.956H83.0967V89.9304H68.0715ZM79.4665 91.9472L70.0883 101.325V91.9472H79.4665ZM71.7018 102.939L81.0799 93.5607V102.939H71.7018Z" fill="#1A1A1F"></path>
    <path d="M47.3992 89.9304V104.956H62.4244V89.9304H47.3992ZM58.7941 91.9472L49.416 101.325V91.9472H58.7941ZM51.0294 102.939L60.4076 93.5607V102.939H51.0294Z" fill="#1A1A1F"></path>
    <path d="M26.3237 89.9304V104.956H41.3489V89.9304H26.3237ZM37.7187 91.9472L28.3405 101.325V91.9472H37.7187ZM30.0548 102.939L39.433 93.5607V102.939H30.0548Z" fill="#1A1A1F"></path>
    <path d="M47.3992 70.1658V85.191H62.4244V70.1658H47.3992ZM58.7941 72.1826L49.416 81.5607V72.1826H58.7941ZM51.0294 83.1742L60.4076 73.796V83.1742H51.0294Z" fill="#1A1A1F"></path>
    <path d="M26.3237 70.1658V85.191H41.3489V70.1658H26.3237ZM37.7187 72.1826L28.3405 81.5607V72.1826H37.7187ZM30.0548 83.1742L39.433 73.796V83.1742H30.0548Z" fill="#1A1A1F"></path>
    <path d="M37.9202 49.6952V64.7204H53.0462V49.6952H37.9202ZM49.3151 51.8128L39.937 61.191V51.8128H49.3151ZM41.6513 62.7036L51.0294 53.3254V62.7036H41.6513V62.7036Z" fill="#1A1A1F"></path>
    <path d="M124.24 107.174C122.626 107.174 121.215 107.678 120.307 108.989C119.198 110.199 118.895 111.914 118.895 114.031C118.895 116.048 119.399 117.762 120.307 119.073C121.215 120.283 122.626 120.888 124.24 120.888C125.853 120.888 127.063 120.384 128.173 119.073C128.878 117.863 129.383 116.149 129.383 114.031C129.383 111.914 128.878 110.3 127.971 108.989C127.063 107.678 125.853 107.174 124.24 107.174Z" fill="#1A1A1F"></path>
    <path d="M155.802 76.6195C155.802 76.7203 155.802 76.7203 155.802 76.8212C155.802 83.4766 140.878 89.0229 122.424 89.0229C103.971 89.0229 89.0462 83.6783 89.0462 76.8212H88.8445V141.258C88.8445 147.813 103.365 153.359 121.517 153.46H122.021H122.122C140.676 153.46 155.903 148.014 155.903 141.258V76.6195H155.802ZM109.517 123.107C108.105 124.216 106.088 124.72 103.365 124.72C101.248 124.72 99.4327 124.317 98.021 123.51V118.872C99.6344 120.283 101.651 120.989 103.567 120.989C104.475 120.989 105.382 120.788 105.886 120.485C106.391 120.082 106.592 119.577 106.592 118.872C106.592 118.166 106.391 117.662 105.886 117.258C105.382 116.754 104.273 116.149 102.66 115.443C99.4327 114.031 97.8193 111.813 97.8193 109.292C97.8193 107.275 98.5252 105.863 99.9369 104.754C101.349 103.645 103.164 102.939 105.483 102.939C107.5 102.939 109.214 103.342 110.727 103.846V108.384C109.315 107.477 107.702 106.972 105.886 106.972C104.979 106.972 104.273 107.174 103.769 107.477C103.265 107.88 103.063 108.384 103.063 109.09C103.063 109.796 103.265 110.3 103.769 110.704C104.172 111.107 104.979 111.611 106.492 112.317C108.508 113.225 109.92 114.132 110.828 115.241C111.332 115.947 111.735 117.056 111.735 118.468C111.634 120.384 110.929 121.998 109.517 123.107ZM134.122 129.762H127.971L123.634 124.922C121.819 124.922 120.004 124.418 118.592 123.51C117.181 122.603 115.87 121.393 115.164 119.779C114.256 118.166 113.954 116.351 113.954 114.435C113.954 112.317 114.357 110.3 115.164 108.485C116.071 106.67 117.281 105.46 118.895 104.552C120.508 103.645 122.323 103.141 124.441 103.141C126.458 103.141 128.172 103.544 129.685 104.351C131.298 105.258 132.408 106.468 133.315 108.082C134.021 109.897 134.424 111.712 134.424 113.83C134.424 116.351 133.92 118.468 132.811 120.283C131.702 122.098 130.088 123.309 127.971 124.014L134.122 129.762ZM150.66 124.418H137.954V103.443H142.794V120.687H150.66V124.418V124.418Z" fill="#1A1A1F"></path>
    <path d="M105.886 42.3339H116.878V33.3591L59.0965 2.50195L1.01245 33.4599V42.4347H12.8108V104.956H22.5923V42.3339H94.9956V69.7625C97.8192 68.2499 101.55 67.0398 105.987 66.1322V42.3339H105.886Z" fill="#1A1A1F"></path>
    <path d="M149.046 76.0145C149.046 80.5523 137.147 84.0817 122.424 84.0817C107.702 84.0817 95.8025 80.4515 95.8025 76.0145C95.8025 71.4767 107.702 67.9473 122.424 67.9473C137.147 67.9473 149.046 71.5775 149.046 76.0145Z" fill="#1A1A1F"></path>
</svg>

<svg xmlns="http://www.w3.org/2000/svg" viewBox="0 0 157 157"><path d="M68.072 89.93v15.026h15.025V89.93H68.072zm11.394 2.017l-9.378 9.378v-9.378h9.379zm-7.764 10.992l9.378-9.378v9.378h-9.378zM47.4 89.93v15.026h15.024V89.93H47.4zm11.394 2.017l-9.378 9.378v-9.378h9.378zM51.03 102.94l9.379-9.378v9.378h-9.379zM26.324 89.93v15.026h15.025V89.93H26.324zm11.395 2.017l-9.379 9.378v-9.378h9.379zm-7.664 10.992l9.378-9.378v9.378h-9.378zM47.4 70.166V85.19h15.024V70.166H47.4zm11.394 2.017l-9.378 9.378v-9.378h9.378zM51.03 83.174l9.379-9.378v9.378h-9.379zM26.324 70.166V85.19h15.025V70.166H26.324zm11.395 2.017L28.34 81.56v-9.378h9.379zm-7.664 10.991l9.378-9.378v9.378h-9.378zM37.92 49.695V64.72h15.126V49.695H37.92zm11.395 2.118l-9.378 9.378v-9.378h9.378zm-7.664 10.89l9.378-9.378v9.379h-9.378zM124.24 107.174c-1.614 0-3.025.504-3.933 1.815-1.109 1.21-1.412 2.925-1.412 5.042 0 2.017.504 3.731 1.412 5.042.908 1.21 2.319 1.815 3.933 1.815 1.613 0 2.823-.504 3.933-1.815.705-1.21 1.21-2.924 1.21-5.042 0-2.117-.505-3.731-1.412-5.042-.908-1.311-2.118-1.815-3.731-1.815z" fill="#1A1A1F"/><path d="M155.802 76.62v.201c0 6.656-14.924 12.202-33.378 12.202-18.453 0-33.378-5.345-33.378-12.202h-.202v64.437c0 6.555 14.521 12.101 32.673 12.202h.605c18.554 0 33.781-5.446 33.781-12.202V76.619h-.101zm-46.285 46.487c-1.412 1.109-3.429 1.613-6.152 1.613-2.117 0-3.932-.403-5.344-1.21v-4.638c1.613 1.411 3.63 2.117 5.546 2.117.908 0 1.815-.201 2.319-.504.505-.403.706-.908.706-1.613 0-.706-.201-1.21-.706-1.614-.504-.504-1.613-1.109-3.226-1.815-3.227-1.412-4.84-3.63-4.84-6.151 0-2.017.705-3.429 2.117-4.538 1.412-1.109 3.227-1.815 5.546-1.815 2.017 0 3.731.403 5.244.907v4.538a8.797 8.797 0 0 0-4.841-1.412c-.907 0-1.613.202-2.117.505-.504.403-.706.907-.706 1.613s.202 1.21.706 1.614c.403.403 1.21.907 2.723 1.613 2.016.908 3.428 1.815 4.336 2.924.504.706.907 1.815.907 3.227-.101 1.916-.806 3.53-2.218 4.639zm24.605 6.655h-6.151l-4.337-4.84c-1.815 0-3.63-.504-5.042-1.412-1.411-.907-2.722-2.117-3.428-3.731-.908-1.613-1.21-3.428-1.21-5.344 0-2.118.403-4.135 1.21-5.95.907-1.815 2.117-3.025 3.731-3.933 1.613-.907 3.428-1.411 5.546-1.411 2.017 0 3.731.403 5.244 1.21 1.613.907 2.723 2.117 3.63 3.731.706 1.815 1.109 3.63 1.109 5.748 0 2.521-.504 4.638-1.613 6.453-1.109 1.815-2.723 3.026-4.84 3.731l6.151 5.748zm16.538-5.344h-12.706v-20.975h4.84v17.244h7.866v3.731zM105.886 42.334h10.992v-8.975L59.096 2.502 1.012 33.46v8.975h11.799v62.521h9.781V42.334h72.404v27.428c2.823-1.512 6.554-2.722 10.991-3.63V42.334h-.101z" fill="#1A1A1F"/><path d="M149.046 76.014c0 4.538-11.899 8.068-26.622 8.068-14.722 0-26.622-3.63-26.622-8.067 0-4.538 11.9-8.068 26.622-8.068 14.723 0 26.622 3.63 26.622 8.067z" fill="#1A1A1F"/></svg>
